icons/ShoppingBag_filled.svg

<svg width="24" height="24" viewBox="0 0 24 24" fill="none" xmlns="http://www.w3.org/2000/svg">
<path fill-rule="evenodd" clip-rule="evenodd" d="M8.25002,6c0,-2.07107 1.67893,-3.75 3.74998,-3.75c2.0711,0 3.75,1.67893 3.75,3.75v0.25h2.3189c0.9181,0 1.6801,0.70953 1.7455,1.62532l0.7807,10.92878c0.1137,1.5919 -1.1471,2.9459 -2.743,2.9459h-11.70413c-1.59594,0 -2.85672,-1.354 -2.74301,-2.9459l0.78062,-10.92878c0.06542,-0.91579 0.82744,-1.62532 1.74555,-1.62532h2.31889zM12,3.75c-1.2426,0 -2.24998,1.00736 -2.24998,2.25v0.25h4.49998v-0.25c0,-1.24264 -1.0073,-2.25 -2.25,-2.25zM8.25,10c0,0.4142 0.33579,0.75 0.75,0.75c0.41421,0 0.75,-0.3358 0.75,-0.75v-2.25h-0.74998h-0.75002zM15.75,7.75h-0.75h-0.75v2.25c0,0.4142 0.3358,0.75 0.75,0.75c0.4142,0 0.75,-0.3358 0.75,-0.75z" fill="#002B51"/>
</svg>

<svg width="24" height="24" viewBox="0 0 24 24" fill="none" xmlns="http://www.w3.org/2000/svg">
<path fill-rule="evenodd" clip-rule="evenodd" d="M8.25002 6C8.25002 3.92893 9.92895 2.25 12 2.25C14.0711 2.25 15.75 3.92893 15.75 6V6.25H18.0689C18.987 6.25 19.749 6.95953 19.8144 7.87532L20.5951 18.8041C20.7088 20.396 19.448 21.75 17.8521 21.75H6.14797C4.55203 21.75 3.29125 20.396 3.40496 18.8041L4.18558 7.87532C4.251 6.95953 5.01302 6.25 5.93113 6.25H8.25002V6ZM14.25 6V6.25H9.75002V6C9.75002 4.75736 10.7574 3.75 12 3.75C13.2427 3.75 14.25 4.75736 14.25 6ZM8.25 7.75H9.00002H9.75V10C9.75 10.4142 9.41421 10.75 9 10.75C8.58579 10.75 8.25 10.4142 8.25 10V7.75ZM15.75 7.75H15H14.25V10C14.25 10.4142 14.5858 10.75 15 10.75C15.4142 10.75 15.75 10.4142 15.75 10V7.75Z" fill="#002B51"/>
</svg>
